azure-patterns/svg-ai.svg

<svg xmlns="http://www.w3.org/2000/svg" viewBox="0 0 52 58">
                                
                            
    <path d="M25.8315988,0 C11.5668316,0.000205961583 0.00239292377,11.4146347 3.55271368e-15,25.49652 L3.55271368e-15,57.9404297 L42.8724558,57.9404297 L42.8724558,40.4110311 L51.6613697,40.4110311 L51.6613697,25.49652 C51.6611231,18.7341332 48.939633,12.2488168 44.0956036,7.46728415 C39.2515742,2.68575153 32.6818088,-0.000313551333 25.8315988,0 Z" fill="#0072C6" fill-rule="nonzero"></path>
    <g transform="translate(6.000000, 9.000000)" stroke="#FFFFFF" stroke-width="1.1286">
        <ellipse cx="9.13275" cy="25.9638295" rx="1.685865" ry="1.65696446"></ellipse>
        <ellipse cx="24.10326" cy="10.5871622" rx="1.685865" ry="1.65696446"></ellipse>
        <ellipse cx="2.119545" cy="17.2150347" rx="1.685865" ry="1.65696446"></ellipse>
        <ellipse cx="6.030765" cy="6.34533257" rx="1.685865" ry="1.65696446"></ellipse>
        <ellipse cx="14.797275" cy="1.70582914" rx="1.685865" ry="1.65696446"></ellipse>
        <ellipse cx="29.16087" cy="2.96511977" rx="1.685865" ry="1.65696446"></ellipse>
        <ellipse cx="36.511245" cy="10.7197299" rx="1.685865" ry="1.65696446"></ellipse>
        <ellipse cx="34.0836" cy="19.4685099" rx="1.685865" ry="1.65696446"></ellipse>
        <ellipse cx="26.935515" cy="22.6498858" rx="1.685865" ry="1.65696446"></ellipse>
        <ellipse cx="16.01109" cy="20.2638576" rx="1.685865" ry="1.65696446"></ellipse>
        <ellipse cx="14.12292" cy="12.0453045" rx="1.685865" ry="1.65696446"></ellipse>
        <ellipse fill="#0072C6" fill-rule="nonzero" cx="20.73153" cy="27.6870631" rx="1.685865" ry="1.65696446"></ellipse>
        <path d="M22.14765,26.7591624 L26.05887,23.7103543"></path>
        <path d="M28.62138,22.6498858 L32.802345,20.3964106"></path>
        <path d="M35.22999,18.0103824 L36.51126,12.3766944"></path>
        <path d="M3.13107,18.9382831 L8.256105,24.638255"></path>
        <path d="M2.119545,15.5580703 L5.154105,7.53835406"></path>
        <path d="M7.17714,5.15231109 L13.111395,2.63372983"></path>
        <path d="M16.48314,1.70582914 L27.54243,2.89883589"></path>
        <path d="M30.374685,3.95930434 L36.174075,9.52670846"></path>
        <path d="M34.82538,10.7197299 L25.789125,10.5871622"></path>
        <path d="M24.710175,8.9964816 L28.081905,4.2244104"></path>
        <path d="M14.12292,10.3883253 L15.539055,2.89883589"></path>
        <path d="M15.808785,12.0453045 L22.55226,11.1174038"></path>
        <path d="M12.437055,12.0453045 L7.58175,7.40578629"></path>
        <path d="M24.57531,12.1778575 L26.193735,21.1917583"></path>
        <path d="M17.696955,20.2638576 L25.24965,22.6498858"></path>
        <path d="M17.15748,18.6731623 L23.36148,11.7801837"></path>
        <path d="M15.404175,19.0708361 L14.8647,13.503432"></path>
        <path d="M12.97653,12.8406374 L3.80541,16.6848079"></path>
        <path d="M3.4008,18.1429354 L14.325225,20.2638576"></path>
        <path d="M32.667465,18.1429354 L25.384515,11.5150629"></path>
        <path d="M9.13275,33.6072785 L9.13275,27.6207939"></path>
        <path d="M10.548885,24.770808 L14.8647,21.4568791"></path>
        <path d="M16.011105,21.9208221 L19.720005,27.0242832"></path>
        <ellipse fill="#0072C6" fill-rule="nonzero" cx="9.13275" cy="33.6072785" rx="1.685865" ry="1.65696446"></ellipse>
    </g>
</svg>

<svg xmlns="http://www.w3.org/2000/svg" viewBox="0 0 52 58"><path d="M25.832 0C11.567 0 .002 11.415 0 25.497V57.94h42.872V40.411h8.79V25.497c0-6.763-2.722-13.248-7.566-18.03C39.252 2.686 32.682 0 25.832 0z" fill="#0072C6"/><g transform="translate(6 9)" stroke="#FFF" stroke-width="1.129"><ellipse cx="9.133" cy="25.964" rx="1.686" ry="1.657"/><ellipse cx="24.103" cy="10.587" rx="1.686" ry="1.657"/><ellipse cx="2.12" cy="17.215" rx="1.686" ry="1.657"/><ellipse cx="6.031" cy="6.345" rx="1.686" ry="1.657"/><ellipse cx="14.797" cy="1.706" rx="1.686" ry="1.657"/><ellipse cx="29.161" cy="2.965" rx="1.686" ry="1.657"/><ellipse cx="36.511" cy="10.72" rx="1.686" ry="1.657"/><ellipse cx="34.084" cy="19.469" rx="1.686" ry="1.657"/><ellipse cx="26.936" cy="22.65" rx="1.686" ry="1.657"/><ellipse cx="16.011" cy="20.264" rx="1.686" ry="1.657"/><ellipse cx="14.123" cy="12.045" rx="1.686" ry="1.657"/><ellipse fill="#0072C6" cx="20.732" cy="27.687" rx="1.686" ry="1.657"/><path d="M22.148 26.76l3.91-3.05M28.621 22.65l4.181-2.254M35.23 18.01l1.281-5.633M3.131 18.938l5.125 5.7M2.12 15.558l3.034-8.02M7.177 5.152l5.934-2.518M16.483 1.706l11.06 1.193M30.375 3.96l5.8 5.567M34.825 10.72l-9.036-.133M24.71 8.996l3.372-4.772M14.123 10.388l1.416-7.49M15.809 12.045l6.743-.928M12.437 12.045l-4.855-4.64M24.575 12.178l1.619 9.014M17.697 20.264l7.553 2.386M17.157 18.673l6.204-6.893M15.404 19.07l-.54-5.567M12.977 12.84l-9.172 3.845M3.4 18.143l10.925 2.12M32.667 18.143l-7.282-6.628M9.133 33.607v-5.986M10.549 24.77l4.316-3.313M16.011 21.92l3.709 5.104"/><ellipse fill="#0072C6" cx="9.133" cy="33.607" rx="1.686" ry="1.657"/></g></svg>
